icons/clipboard-chevron-down.svg

<svg xmlns="http://www.w3.org/2000/svg" width="24" height="24" viewBox="0 0 24 24">
  <path d="M16,1 C16.5128358,1 16.9355072,1.38604019 16.9932723,1.88337887 L17,2 L17,3 L19,3 C20.1045695,3 21,3.8954305 21,5 L21,21 C21,22.1045695 20.1045695,23 19,23 L5,23 C3.8954305,23 3,22.1045695 3,21 L3,5 C3,3.8954305 3.8954305,3 5,3 L7,3 L7,2 C7,1.48716416 7.38604019,1.06449284 7.88337887,1.00672773 L8,1 L16,1 Z M8.38710056,11.7097046 L8.29289322,11.7928932 C7.93240926,12.1533772 7.90467972,12.7206082 8.20970461,13.1128994 L8.29289322,13.2071068 L11.2928932,16.2071068 C11.6533772,16.5675907 12.2206082,16.5953203 12.6128994,16.2902954 L12.7071068,16.2071068 L15.7071068,13.2071068 C16.0976311,12.8165825 16.0976311,12.1834175 15.7071068,11.7928932 C15.3466228,11.4324093 14.7793918,11.4046797 14.3871006,11.7097046 L14.2928932,11.7928932 L12,14.085 L9.70710678,11.7928932 C9.34662282,11.4324093 8.77939176,11.4046797 8.38710056,11.7097046 Z M15,3 L9,3 L9,5 L15,5 L15,3 Z"/>
</svg>

<svg xmlns="http://www.w3.org/2000/svg" viewBox="0 0 24 24">
  <path d="M16 1a1 1 0 0 1 1 .88V3h2a2 2 0 0 1 2 2v16a2 2 0 0 1-2 2H5a2 2 0 0 1-2-2V5c0-1.1.9-2 2-2h2V2a1 1 0 0 1 .88-1H16zM8.39 11.71l-.1.08a1 1 0 0 0-.08 1.32l.08.1 3 3a1 1 0 0 0 1.32.08l.1-.08 3-3a1 1 0 0 0-1.32-1.5l-.1.08L12 14.1l-2.3-2.3a1 1 0 0 0-1.31-.08zM15 3H9v2h6V3z"/>
</svg>
